X:114
T:The Cloud Received Christ From Their Sight
%%stretchlast false
M:3/2
L:1/4
K:F clef=C1
"^v"[Cc]2 "^I¹"[A,Ccf] "^I"[F,FAf] "^V"[CEcg]2 | [CEcg]2 "^I"[Fca] "^V7"[CEBg] "^vi"[DFAf]2 | "^V"[CEcg]2 "^I"[Fca] [Fca] "^V7¹"[EGcb]2 | "^I"[Fca]2 "^V"[CEcg]4 | [CGec']2 "^I"[FAfc'] [Fca] [Fca]2 | "^I¹"[A,Fcf]2 "^IV"[B,Fdf] [B,FBd] [B,FBd]2 | [B,Fdf] [B,FBd] "^I²"[CFAc] [CFAf] [CFAf]2 | "^V7"[CEBg]2 "^I"[F,FAf]4 |]
